X:1
T:Chistus spes mea
T:Chistus spes mea
T:Adrien Petit Coclico
C:Adrien Petit Coclico
%%score [ 1 2 3 ]
L:1/8
Q:1/4=120
M:2/2
K:C
V:1 treble nm="Soprano" snm="S"
V:2 treble-8 nm="Tenor" snm="T"
V:3 bass nm="Bass" snm="B"
V:1
 z8 | %1
"^Chri-stus spes  me-     a------------------- et     me-us pro-tec-  tor           Je-" E4 B2 B2 | %2
 B2 A2 (A4 | A2) GF E2 F2 | G2 A2 B2 G2 | F4 z2 E2 | %6
"^sus  sa-lus   me-  a---------------------   e-   ti-   am ser-  va- tor               hu-   mi-lis    ser- va- tor" B2 B2 B2 A2 | %7
 A6 GF | E2 F2 G2 A2 | B2 G2 F4 | z2 F2 E2 C2 | E2 E2 B,4 | z2 B,2 F3 G | A2 A2 E2 EF | GA B4 AG | %15
 F4 z2 F2 | E2 C2 E2 E2 | B,4 z2 B,2 | F3 G A2 A2 | E3 F GA (B2 | B2) AG F4 | z2 F2 A4 | %22
 B2 c3 BAG | A4 (A4 | A8) |] %25
V:2
"^Chri-    stus spes me-      a-----------------   et    me-us  pro-tector              Je- sus sa-" z4 A4 | %1
 e2 e2 e2 d2 | d6 cB | A2 B2 c2 d2 | e2 c2 B4 | z2 A2 e2 e2 | %6
"^lus  me-a--------------------     e-    ti-   am ser-va-   tor               hu-   mi-lis   ser-va-   tor               si-" e2 d2 (d4 | %7
 d2) cB A2 B2 | c2 d2 e2 c2 | B4 z2 B2 | A2 F2 A2 A2 | E4 z2 E2 | %12
"^si-  b-   sem-per e- ro----------------------------------              si-    bi  sem-per e-     ro               si-""^si-  bi" B3 c d2 d2 | %13
 A2 AB cd (e2 | e2) dc B4 | z2 B2 A2 F2 | A2 A2 E4 | z2 E2 B3 c | %18
"^bi    semper e-     ro----------------------------                si-  bi       sem-per                e-    ro." d2 d2 A3 B | %19
 cd e4 dc | B4 z2 B2 | (A8 | (A8) | (A8) | A8) |] %25
V:3
"^Chri-   stus spes me-     a--------------------et    me-us pro-tec-tor             Je-  sus sa-lus  me-" D,4 A,2 A,2 | %1
 A,2 G,2 (G,4 | G,2) F,E, D,2 E,2 | F,2 G,2 A,2 F,2 | E,4 z2 D,2 | A,2 A,2 A,2 G,2 | %6
"^a---------------------     e- ti-    am  ser- va-tor                  hu-mi-lis    ser-va-  tor                  si- bi    sem-" G,6 F,E, | %7
 D,2 E,2 F,2 G,2 | A,2 F,2 E,4 | z2 E,2 D,2 B,,2 | D,2 D,2 A,,4 | z2 A,,2 E,3 F, | %12
"^bi    semper e-    ro----------------------------" G,2 G,2 E,2 D,E, | F,G, A,4 G,F, | %14
"^si-  bi   sem-per   e-   ro                 si- bi   sem-" E,4 z2 E,2 | D,2 B,,2 D,2 D,2 | %16
 A,,4 z2 A,,2 | E,3 F, G,2 G,2 | %18
"^per   e-   ro------------------------------                 e-     ro." D,3 E, F,G, (A,2 | %19
 A,2) G,F, E,4 | z2 E,2 (D,4 | D,4) (A,,4 | (A,,8) | (A,,8) | A,,8) |] %25

